!!!OTL: Jianshe zuguo haoshanhe
!!!ARE: Asia, China, Fujian Shouning
!! II, 568
!!!SCT: C1994
!!!YEM: Copyright 1995, estate of Helmut Schaffrath.
**kern
*ICvox
*Ivox
*M2/4
*k[b-e-]
*B-:
{8dd
16b-
16g
8b-
16b-
16b-
=1
16dd
16cc
8b-
4cc}
=2
{8.dd
16ff
16dd
16cc
8b-
=3
8.cc
16dd
4cc}
=4
{8b-
8b-
8dd
16g
16b-
=5
8b-
16b-
16g
4f}
=6
{8g
8d
8f
8f
=7
16b-
16cc
8dd
8cc
8cc
=8
16g
16f
8d
8f
8g
=9
4f
4r}
=10
{8dd
16dd
16g
16b-
8b-
16g
=11
8b-
8g
8g
8b-
=12
8.dd
16ff
16dd
16cc
8b-
=13
8cc
8dd
8cc
8r}
=14
{8g
8b-
8cc
8b-
=15
8b-
16b-
16g
4f}
=16
{8g
8d
8f
8f
=17
16b-
16cc
8dd
8cc
8cc
=18
16g
16f
8d
8f
8g
=19
4f
4r}
==
!!!AGN: Xiaodiao
!!!AMT: simple duple
!!!AIN: vox
!!!EED: Helmut Schaffrath
!!!EEV: 1.0
*-
